packages/ffe-icons/icons/open/300/md/keyboard_previous_language.svg

<svg xmlns="http://www.w3.org/2000/svg" height="24" viewBox="0 -960 960 960" width="24"><path d="M172.309-100.001q-30.308 0-51.308-21t-21-51.308v-375.382q0-30.308 21-51.308t51.308-21h615.382q30.308 0 51.308 21t21 51.308v375.382q0 30.308-21 51.308t-51.308 21H172.309Zm0-59.999h615.382q4.616 0 8.463-3.846 3.846-3.847 3.846-8.463v-375.382q0-4.616-3.846-8.463-3.847-3.846-8.463-3.846H172.309q-4.616 0-8.463 3.846-3.846 3.847-3.846 8.463v375.382q0 4.616 3.846 8.463 3.847 3.846 8.463 3.846ZM360-204.616h240q14.692 0 25.038-10.153 10.346-10.154 10.346-25.231 0-14.692-10.346-25.038T600-275.384H360q-14.692 0-25.038 10.153-10.346 10.154-10.346 25.231 0 14.692 10.346 25.038T360-204.616ZM160-160V-560-160Zm189.614-604.613H400q12.769 0 21.384 8.615 8.615 8.616 8.615 21.384 0 12.769-8.615 21.385-8.615 8.615-21.384 8.615H286.154q-15.461 0-25.807-10.346-10.346-10.346-10.346-25.808v-113.846q0-12.768 8.615-21.384 8.615-8.615 21.384-8.615t21.384 8.615q8.615 8.616 8.615 21.384v42.925q31.231-34 74.539-53.462 43.308-19.462 93.154-19.462 75.769 0 135.692 43.461 59.923 43.462 83.692 113.077 3.231 9.923-4.884 16.692-8.116 6.769-19.885 6.769-12.153 0-23.076-4.846t-15.384-15.385q-21.154-45.077-62.924-72.423-41.769-27.346-93.231-27.346-38.462 0-72.001 16.077t-56.077 43.924ZM240-444.616q14.692 0 25.038-10.346T275.384-480q0-14.692-10.346-25.038T240-515.384q-14.692 0-25.038 10.346T204.616-480q0 14.692 10.346 25.038T240-444.616Zm120 0q14.692 0 25.038-10.346T395.384-480q0-14.692-10.346-25.038T360-515.384q-14.692 0-25.038 10.346T324.616-480q0 14.692 10.346 25.038T360-444.616Zm120 0q14.692 0 25.038-10.346T515.384-480q0-14.692-10.346-25.038T480-515.384q-14.692 0-25.038 10.346T444.616-480q0 14.692 10.346 25.038T480-444.616Zm120 0q14.692 0 25.038-10.346T635.384-480q0-14.692-10.346-25.038T600-515.384q-14.692 0-25.038 10.346T564.616-480q0 14.692 10.346 25.038T600-444.616Zm120 0q14.692 0 25.038-10.346T755.384-480q0-14.692-10.346-25.038T720-515.384q-14.692 0-25.038 10.346T684.616-480q0 14.692 10.346 25.038T720-444.616Zm-480 120q14.692 0 25.038-10.346T275.384-360q0-14.692-10.346-25.038T240-395.384q-14.692 0-25.038 10.346T204.616-360q0 14.692 10.346 25.038T240-324.616Zm120 0q14.692 0 25.038-10.346T395.384-360q0-14.692-10.346-25.038T360-395.384q-14.692 0-25.038 10.346T324.616-360q0 14.692 10.346 25.038T360-324.616Zm120 0q14.692 0 25.038-10.346T515.384-360q0-14.692-10.346-25.038T480-395.384q-14.692 0-25.038 10.346T444.616-360q0 14.692 10.346 25.038T480-324.616Zm120 0q14.692 0 25.038-10.346T635.384-360q0-14.692-10.346-25.038T600-395.384q-14.692 0-25.038 10.346T564.616-360q0 14.692 10.346 25.038T600-324.616ZM684.616-360q0 14.692 10.346 25.038T720-324.616q14.692 0 25.038-10.346T755.384-360q0-14.692-10.346-25.038T720-395.384q-14.692 0-25.038 10.346T684.616-360Z"/></svg>

<svg xmlns="http://www.w3.org/2000/svg" height="24" viewBox="0 -960 960 960" width="24"><path d="M172.31-100Q142-100 121-121q-21-21-21-51.31v-375.38Q100-578 121-599q21-21 51.31-21h615.38Q818-620 839-599q21 21 21 51.31v375.38Q860-142 839-121q-21 21-51.31 21H172.31Zm0-60h615.38q4.62 0 8.46-3.85 3.85-3.84 3.85-8.46v-375.38q0-4.62-3.85-8.46-3.84-3.85-8.46-3.85H172.31q-4.62 0-8.46 3.85-3.85 3.84-3.85 8.46v375.38q0 4.62 3.85 8.46 3.84 3.85 8.46 3.85ZM360-204.62h240q14.69 0 25.04-10.15 10.34-10.15 10.34-25.23 0-14.69-10.34-25.04-10.35-10.34-25.04-10.34H360q-14.69 0-25.04 10.15-10.34 10.15-10.34 25.23 0 14.69 10.34 25.04 10.35 10.34 25.04 10.34ZM160-160v-400 400Zm189.61-604.61H400q12.77 0 21.38 8.61 8.62 8.62 8.62 21.39 0 12.77-8.62 21.38-8.61 8.62-21.38 8.62H286.15q-15.46 0-25.8-10.35Q250-725.31 250-740.77v-113.84q0-12.77 8.62-21.39 8.61-8.61 21.38-8.61t21.38 8.61q8.62 8.62 8.62 21.39v42.92q31.23-34 74.54-53.46t93.15-19.46q75.77 0 135.69 43.46 59.93 43.46 83.7 113.07 3.23 9.93-4.89 16.7-8.11 6.77-19.88 6.77-12.16 0-23.08-4.85-10.92-4.85-15.38-15.38-21.16-45.08-62.93-72.43-41.77-27.34-93.23-27.34-38.46 0-72 16.07-33.54 16.08-56.08 43.93ZM240-444.62q14.69 0 25.04-10.34 10.34-10.35 10.34-25.04t-10.34-25.04q-10.35-10.34-25.04-10.34t-25.04 10.34q-10.34 10.35-10.34 25.04t10.34 25.04q10.35 10.34 25.04 10.34Zm120 0q14.69 0 25.04-10.34 10.34-10.35 10.34-25.04t-10.34-25.04q-10.35-10.34-25.04-10.34t-25.04 10.34q-10.34 10.35-10.34 25.04t10.34 25.04q10.35 10.34 25.04 10.34Zm120 0q14.69 0 25.04-10.34 10.34-10.35 10.34-25.04t-10.34-25.04q-10.35-10.34-25.04-10.34t-25.04 10.34q-10.34 10.35-10.34 25.04t10.34 25.04q10.35 10.34 25.04 10.34Zm120 0q14.69 0 25.04-10.34 10.34-10.35 10.34-25.04t-10.34-25.04q-10.35-10.34-25.04-10.34t-25.04 10.34q-10.34 10.35-10.34 25.04t10.34 25.04q10.35 10.34 25.04 10.34Zm120 0q14.69 0 25.04-10.34 10.34-10.35 10.34-25.04t-10.34-25.04q-10.35-10.34-25.04-10.34t-25.04 10.34q-10.34 10.35-10.34 25.04t10.34 25.04q10.35 10.34 25.04 10.34Zm-480 120q14.69 0 25.04-10.34 10.34-10.35 10.34-25.04t-10.34-25.04q-10.35-10.34-25.04-10.34t-25.04 10.34q-10.34 10.35-10.34 25.04t10.34 25.04q10.35 10.34 25.04 10.34Zm120 0q14.69 0 25.04-10.34 10.34-10.35 10.34-25.04t-10.34-25.04q-10.35-10.34-25.04-10.34t-25.04 10.34q-10.34 10.35-10.34 25.04t10.34 25.04q10.35 10.34 25.04 10.34Zm120 0q14.69 0 25.04-10.34 10.34-10.35 10.34-25.04t-10.34-25.04q-10.35-10.34-25.04-10.34t-25.04 10.34q-10.34 10.35-10.34 25.04t10.34 25.04q10.35 10.34 25.04 10.34Zm120 0q14.69 0 25.04-10.34 10.34-10.35 10.34-25.04t-10.34-25.04q-10.35-10.34-25.04-10.34t-25.04 10.34q-10.34 10.35-10.34 25.04t10.34 25.04q10.35 10.34 25.04 10.34ZM684.62-360q0 14.69 10.34 25.04 10.35 10.34 25.04 10.34t25.04-10.34q10.34-10.35 10.34-25.04t-10.34-25.04q-10.35-10.34-25.04-10.34t-25.04 10.34q-10.34 10.35-10.34 25.04Z"/></svg>
